assets/icons/wishlist.svg

<svg width="20" height="20" viewBox="0 0 20 20" fill="none" xmlns="http://www.w3.org/2000/svg">
<path d="M11.3253 16.6403C10.5337 17.232 9.46699 17.232 8.67533 16.6403C6.32533 14.882 1.66699 10.8628 1.66699 7.24533C1.66699 4.85533 3.42116 2.91699 5.83366 2.91699C7.08366 2.91699 8.33366 3.33366 10.0003 5.00033C11.667 3.33366 12.917 2.91699 14.167 2.91699C16.5795 2.91699 18.3337 4.85533 18.3337 7.24533C18.3337 8.15283 18.0412 9.08449 17.5653 10.0003M11.667 13.3337H14.5837M14.5837 13.3337H17.5003M14.5837 13.3337V10.417M14.5837 13.3337V16.2503" stroke="currentColor" stroke-width="1.5" stroke-linecap="round" stroke-linejoin="round"/>
</svg>

<svg xmlns="http://www.w3.org/2000/svg" width="20" height="20" fill="none" viewBox="0 0 20 20"><path stroke="currentColor" stroke-linecap="round" stroke-linejoin="round" stroke-width="1.5" d="M11.325 16.64a2.2 2.2 0 0 1-2.65 0c-2.35-1.758-7.008-5.777-7.008-9.395 0-2.39 1.754-4.328 4.167-4.328 1.25 0 2.5.417 4.166 2.083 1.667-1.666 2.917-2.083 4.167-2.083 2.412 0 4.167 1.938 4.167 4.328 0 .908-.293 1.84-.769 2.755m-5.898 3.334h2.917m0 0H17.5m-2.916 0v-2.917m0 2.917v2.916"/></svg>
